priv/static/images/coin-flip.svg

<?xml version="1.0" encoding="UTF-8" standalone="no"?>
<svg
   width="16.272984"
   height="19.066229"
   viewBox="0 0 16.272984 19.066229"
   fill="none"
   version="1.1"
   id="svg1"
   xmlns="http://www.w3.org/2000/svg"
   xmlns:svg="http://www.w3.org/2000/svg">
  <g
     id="coin-flip"
     transform="translate(-3.9694024,-3.176371)">
    <path
       id="Ellipse 8"
       d="M 12.623,11.8858 C 11.193,13.3864 9.60217,14.4112 8.2157,14.8773 6.79243,15.3558 5.79076,15.1925 5.26416,14.6907 4.73756,14.1888 4.52627,13.1961 4.93575,11.7515 5.33465,10.3442 6.28186,8.70598 7.71192,7.20542 9.14198,5.70485 10.7328,4.67996 12.1193,4.21385 c 1.4232,-0.47847 2.4249,-0.31517 2.9515,0.18669 0.5266,0.50186 0.7379,1.49452 0.3284,2.93915 -0.3989,1.40728 -1.3461,3.04551 -2.7762,4.54611 z"
       stroke="#000000"
       stroke-width="1.5" />
    <path
       id="Subtract"
       fill-rule="evenodd"
       clip-rule="evenodd"
       d="m 5.83906,16.7255 c 2.21362,0.8888 5.62974,-0.2152 8.33494,-2.8798 2.7006,-2.66 3.837,-6.03247 2.9631,-8.23292 0.2429,0.11749 0.4612,0.27013 0.6507,0.45923 1.6753,1.67159 0.4625,5.55899 -2.7089,8.68269 -3.1714,3.1238 -7.10044,4.301 -8.77572,2.6294 C 6.11089,17.1923 5.95666,16.9712 5.83906,16.7255 Z"
       fill="#000000" />
    <path
       id="Vector 17"
       d="M 18.568,21.4926 C 19.4433,20.3045 20,16 18.8111,13"
       stroke="#000000"
       stroke-width="1.5"
       stroke-linecap="round"
       stroke-linejoin="round" />
    <path
       id="Vector 18"
       d="m 14,21 c 0.4203,-0.6196 0.7746,-2 0.5,-3"
       stroke="#000000"
       stroke-width="1.5"
       stroke-linecap="round"
       stroke-linejoin="round" />
    <path
       id="Vector 19"
       d="m 9,21 c 0,0 0.5,-0.5 0.5,-1"
       stroke="#000000"
       stroke-width="1.5"
       stroke-linecap="round"
       stroke-linejoin="round" />
  </g>
</svg>

<?xml version="1.0" encoding="UTF-8" standalone="no"?>
<svg
   width="24"
   height="24"
   viewBox="0 0 24 24"
   fill="none"
   version="1.1"
   id="svg1"
   sodipodi:docname="coin-flip.svg"
   inkscape:version="1.4 (e7c3feb100, 2024-10-09)"
   xmlns:inkscape="http://www.inkscape.org/namespaces/inkscape"
   xmlns:sodipodi="http://sodipodi.sourceforge.net/DTD/sodipodi-0.dtd"
   xmlns="http://www.w3.org/2000/svg"
   xmlns:svg="http://www.w3.org/2000/svg">
  <defs
     id="defs1" />
  <sodipodi:namedview
     id="namedview1"
     pagecolor="#ffffff"
     bordercolor="#000000"
     borderopacity="0.25"
     inkscape:showpageshadow="2"
     inkscape:pageopacity="0.0"
     inkscape:pagecheckerboard="0"
     inkscape:deskcolor="#d1d1d1"
     inkscape:zoom="33.458333"
     inkscape:cx="11.521793"
     inkscape:cy="14.002491"
     inkscape:window-width="1854"
     inkscape:window-height="1011"
     inkscape:window-x="0"
     inkscape:window-y="0"
     inkscape:window-maximized="1"
     inkscape:current-layer="svg1" />
  <g
     id="coin-flip">
    <path
       id="Ellipse 8"
       d="M12.623 11.8858C11.193 13.3864 9.60217 14.4112 8.2157 14.8773C6.79243 15.3558 5.79076 15.1925 5.26416 14.6907C4.73756 14.1888 4.52627 13.1961 4.93575 11.7515C5.33465 10.3442 6.28186 8.70598 7.71192 7.20542C9.14198 5.70485 10.7328 4.67996 12.1193 4.21385C13.5425 3.73538 14.5442 3.89868 15.0708 4.40054C15.5974 4.9024 15.8087 5.89506 15.3992 7.33969C15.0003 8.74697 14.0531 10.3852 12.623 11.8858Z"
       stroke="black"
       stroke-width="1.5" />
    <path
       id="Subtract"
       fill-rule="evenodd"
       clip-rule="evenodd"
       d="M5.83906 16.7255C8.05268 17.6143 11.4688 16.5103 14.174 13.8457C16.8746 11.1857 18.011 7.81323 17.1371 5.61278C17.38 5.73027 17.5983 5.88291 17.7878 6.07201C19.4631 7.7436 18.2503 11.631 15.0789 14.7547C11.9075 17.8785 7.97846 19.0557 6.30318 17.3841C6.11089 17.1923 5.95666 16.9712 5.83906 16.7255Z"
       fill="black" />
    <path
       id="Vector 17"
       d="M18.568 21.4926C19.4433 20.3045 20 16 18.8111 13"
       stroke="black"
       stroke-width="1.5"
       stroke-linecap="round"
       stroke-linejoin="round" />
    <path
       id="Vector 18"
       d="M14 21C14.4203 20.3804 14.7746 19 14.5 18"
       stroke="black"
       stroke-width="1.5"
       stroke-linecap="round"
       stroke-linejoin="round" />
    <path
       id="Vector 19"
       d="M9 21C9 21 9.5 20.5 9.5 20"
       stroke="black"
       stroke-width="1.5"
       stroke-linecap="round"
       stroke-linejoin="round" />
  </g>
</svg>
